icons/svg/air-conditioner.svg

﻿<?xml version="1.0" encoding="utf-8"?>
<!DOCTYPE svg PUBLIC "-//W3C//DTD SVG 1.1//EN" "http://www.w3.org/Graphics/SVG/1.1/DTD/svg11.dtd">
<svg xmlns="http://www.w3.org/2000/svg" xmlns:xlink="http://www.w3.org/1999/xlink" version="1.1" baseProfile="full" width="24" height="24" viewBox="0 0 24.00 24.00" enable-background="new 0 0 24.00 24.00" xml:space="preserve">
	<path fill="#000000" fill-opacity="1" stroke-width="1.33333" stroke-linejoin="miter" d="M 6.58634,0.663198C 8.93171,-1.1498 11.4675,1.0575 12.0406,4.4995C 12.469,4.5051 12.8937,4.6204 13.2695,4.8396C 13.7859,4.2399 14.2525,3.4175 14.0743,2.5125C 13.6495,0.354998 16.0583,-1.3896 18.3504,1.5756C 20.1645,3.9224 17.9535,6.4598 14.508,7.0309C 14.5021,7.4621 14.385,7.8894 14.1627,8.2669C 14.7613,8.7788 15.5783,9.2374 16.4768,9.0605C 18.6343,8.6357 20.3789,11.0444 17.4136,13.3366C 15.0673,15.1503 12.5304,12.9405 11.9587,9.4962C 11.5329,9.4873 11.1116,9.37 10.739,9.1503C 10.2193,9.7508 9.74651,10.5773 9.92568,11.4873C 10.3504,13.6448 7.94174,15.3894 5.64959,12.4241C 3.83219,10.073 6.05462,7.5306 9.51103,6.9657C 9.51677,6.5394 9.63113,6.1169 9.84843,5.7425C 9.24896,5.2267 8.42724,4.7613 7.52319,4.9393C 5.36571,5.364 3.62106,2.9553 6.58634,0.663198 Z M 5,16L 7,16C 8.10457,16 9,16.8954 9,18L 9,24L 7,24L 7,22L 5,22L 5,24L 3,24L 3,18C 3,16.8954 3.89543,16 5,16 Z M 5,18L 5,20L 7,20L 7,18L 5,18 Z M 12.9297,16L 15,16L 12.0703,24L 10,24L 12.9297,16 Z M 18,16L 21,16L 21,18L 18,18L 18,22L 21,22L 21,24L 18,24C 16.8954,24 16,23.1046 16,22L 16,18C 16,16.8954 16.8954,16 18,16 Z "/>
</svg>

<svg xmlns="http://www.w3.org/2000/svg" version="1.1" baseProfile="full" width="24" height="24" viewBox="0 0 24.00 24.00" xml:space="preserve"><path fill="#000" fill-opacity="1" stroke-width="1.333" stroke-linejoin="miter" d="M6.586.663c2.346-1.813 4.88.395 5.455 3.837.43.005.854.12 1.23.34.516-.6.982-1.422.804-2.327-.425-2.158 1.984-3.903 4.276-.937 1.814 2.346-.397 4.884-3.842 5.455-.006.432-.123.86-.345 1.237.598.512 1.415.97 2.314.793 2.157-.424 3.902 1.984.937 4.277-2.347 1.813-4.884-.396-5.455-3.84-.427-.01-.848-.127-1.22-.347-.52.6-.993 1.427-.814 2.337.424 2.158-1.984 3.902-4.276.937-1.818-2.35.405-4.893 3.86-5.458.007-.427.12-.85.338-1.224-.6-.515-1.42-.98-2.325-.803-2.157.424-3.902-1.985-.937-4.277zM5 16h2c1.105 0 2 .895 2 2v6H7v-2H5v2H3v-6c0-1.105.895-2 2-2zm0 2v2h2v-2H5zm7.93-2H15l-2.93 8H10l2.93-8zM18 16h3v2h-3v4h3v2h-3c-1.105 0-2-.895-2-2v-4c0-1.105.895-2 2-2z"/></svg>
